X:1
T:Psalm 104
T:A Major         Israel Holdroyd, 1722
T:Nahum Tate and Nicholas Brady, 1696 New Version (Psalm 149)       55. 55. 65. 65.
T:Transcribed from The Spiritual Man's Companion, 1724
T:No Copyright.  Transcribed from Suffolk Harmony, 1786.
T:No Copyright.  Transcribed from Suffolk Harmony, 1786.
Z:No Copyright.  Transcribed from Suffolk Harmony, 1786.
%%score [ 1 2 3 4 ]
L:1/8
Q:1/4=160
M:3/2
K:A
V:1 treble nm="Tr." snm="Tr."
V:2 treble nm="C." snm="C."
V:3 treble-8 nm="T." snm="T."
V:4 bass nm="B." snm="B."
V:1
 z4 | z12 | z12 | z12 | z12 | z12 | z8 B4 | (c2 B2) (A2 B2) c4 | B8 A4 | G4 G4 (c2 B2) | %10
w: ||||||as-|sem- * bly * to|sing: *||
w: ||||||his|prai- * ses * ex-|press; *||
 A4 A4 (A2 B2) | (cd e2) (AB c2) (FG A2) | B8 G4 | (A2 B2) (cd e2) (AB c2) | (FG A2) B4 cBAG | %15
w: |||||
w: |||||
 FGAF B4 G4 | A8 |] %17
w: ||
w: ||
V:2
 z4 | z12 | z12 | z12 | z8 (E2 F2) | (G2 F2) (E2 F2) G4 | A8 z4 | z12 | z8 C4 | E4 E4 ^E4 | %10
w: ||||His *|praise * in * the|great||In|our great cre-|
w: ||||With *|tin- * brel * and|harp||Who|al- ways takes|
 F4 F4 E4 | (A2 G2) (F2 E2) F4 | E8 E4 | E4 (A2 G2) (F2 E2) | F4 E4 (CD E2) | F4 F4 E4 | E8 |] %17
w: a- tor let|Is- * rael * re-|joice; And|chil- dren * of *|Zi- on be * *|glad in their|King.|
w: plea- sure his|saints * to * ad-|vance, And|with his * sal- *|va- tion the * *|hum- ble to|bless.|
V:3
 (A2 B2) | (c2 B2) (A2 B2) (c2 d2) | e8 z4 | z12 | z12 | z12 | z12 | z12 | z8 A4 | B4 B4 c4 | %10
w: 1. O *|praise * ye * the *|Lord,||||||||
w: 2. Let *|them * his * great *|name||||||||
 d4 d4 (c2 B2) | (A2 B2) (cd e2) (d2 c2) | B8 B4 | (c2 B2) (A2 B2) (cd e2) | (d2 c2) B4 (A2 B2) | %15
w: |||||
w: |||||
 c4 (d2 c2) B4 | A8 |] %17
w: ||
w: ||
V:4
 A,,4 | A,,4 A,,4 A,,4 | A,8 (A,2 G,2) | (A,2 B,2) (A,2 G,2) (F,3 E,) | E,8 E,4 | E,4 E,4 E,4 | %6
w: 1. O|praise ye the|Lord, pre- *|pare * your * glad *|voice, His|praise in the|
w: 2. Let|them his great|name ex- *|tol * in * the *|dance; With|tim- brel and|
 A,8 E,4 | E,4 E,4 E,4 | B,,8 A,,4 | E,4 E,4 C,4 | F,4 F,4 (A,2 G,2) | %11
w: great as-|sem- bly to|sing: In|our great cre-|a- tor let *|
w: harp his|prai- ses ex-|press; Who|al- ways takes|plea- sure his *|
 (F,2 E,2) (D,2 C,2) (B,,2 A,,2) | E,8 E,4 | (A,2 G,2) (F,2 E,2) (D,2 C,2) | %14
w: Is- * rael * re- *|joice; And|chil- * dren * of *|
w: saints * to * ad- *|vance, And|with * his * sal- *|
"___________________________________________________\nEdited by B. C. Johnston, 2018\n   Whole piece transposed up from F major to A major." (B,,2 A,,2) E,4 (F,2 E,2) | %15
w: Zi- * on be *|
w: va- * tion the *|
 (D,2 C,2) B,,4 E,4 | A,,8 |] %17
w: glad * in their|King.|
w: hum- * ble to|bless.|

